/* XPM */
static const char *east[] = {
/* columns rows colors chars-per-pixel */
"64 64 226 2 ",
"   c #001C02",
".  c #01150D",
"X  c #031B0D",
"o  c #001403",
"O  c #051514",
"+  c #0D1316",
"@  c #061C12",
"#  c #0A1C15",
"$  c #0D141A",
"%  c #0D191C",
"&  c #101217",
"*  c #11141B",
"=  c #111B1D",
"-  c #040F11",
";  c #002501",
":  c #012B02",
">  c #03250C",
",  c #042C0C",
"<  c #092F0E",
"1  c #013405",
"2  c #033B05",
"3  c #04320C",
"4  c #08320C",
"5  c #053B0A",
"6  c #0A3C0D",
"7  c #052213",
"8  c #0A2414",
"9  c #062B13",
"0  c #0B2C15",
"q  c #0D231B",
"w  c #0C2C1A",
"e  c #11231E",
"r  c #112B1D",
"t  c #102E17",
"y  c #073311",
"u  c #0B3314",
"i  c #073A10",
"p  c #0B3B13",
"a  c #0E331B",
"s  c #0E3B1A",
"d  c #12341C",
"f  c #123B1C",
"g  c #113117",
"h  c #0E1B20",
"j  c #0F1720",
"k  c #111421",
"l  c #131E22",
"z  c #181F24",
"x  c #151E28",
"c  c #0F2221",
"v  c #0F2C21",
"b  c #152324",
"n  c #192526",
"m  c #142B24",
"M  c #182B26",
"N  c #172529",
"B  c #192529",
"V  c #162B29",
"C  c #192929",
"Z  c #133322",
"A  c #143C22",
"S  c #183B24",
"D  c #16332A",
"F  c #19322B",
"G  c #1A392A",
"H  c #173828",
"J  c #1B2630",
"K  c #0A430C",
"L  c #0C4B0E",
"P  c #064405",
"I  c #0D520D",
"U  c #10540E",
"Y  c #0D4313",
"T  c #0C4B11",
"R  c #0F421A",
"E  c #124515",
"W  c #134B14",
"Q  c #13431C",
"!  c #174C1A",
"~  c #0D5411",
"^  c #135313",
"/  c #1A531B",
"(  c #1D5D1D",
")  c #175B17",
"_  c #215B1D",
"`  c #21531C",
"'  c #1D631C",
"]  c #1C6C1A",
"[  c #1D7119",
"{  c #21631D",
"}  c #226C1C",
"|  c #21721E",
" . c #154322",
".. c #194423",
"X. c #154A23",
"o. c #1A4B24",
"O. c #1D432A",
"+. c #1D4C2A",
"@. c #17402A",
"#. c #1C5225",
"$. c #195823",
"%. c #224D2C",
"&. c #224825",
"*. c #285A2D",
"=. c #235727",
"-. c #295832",
";. c #335D37",
":. c #2B4E32",
">. c #1D6522",
",. c #226323",
"<. c #236C22",
"1. c #2C6D2A",
"2. c #28652A",
"3. c #277426",
"4. c #3C6B3B",
"5. c #376537",
"6. c #2E7533",
"7. c #3B7D34",
"8. c #397637",
"9. c #316F2C",
"0. c #416C3D",
"q. c #427D3B",
"w. c #3F7141",
"e. c #3F6644",
"r. c #426C43",
"t. c #437443",
"y. c #447B42",
"u. c #497C45",
"i. c #467C48",
"p. c #497350",
"a. c #3C8938",
"s. c #458E3C",
"d. c #44823B",
"f. c #46923A",
"g. c #3D8847",
"h. c #4A8B44",
"j. c #4E8C4A",
"k. c #478248",
"l. c #54894D",
"z. c #4E914A",
"x. c #4B9846",
"c. c #53954D",
"v. c #529D4C",
"b. c #589C4B",
"n. c #5A8F55",
"m. c #538A53",
"M. c #549252",
"N. c #5B9453",
"B. c #589757",
"V. c #659F5D",
"C. c #56A24C",
"Z. c #5DAA54",
"A. c #5CA357",
"S. c #4FA046",
"D. c #62A554",
"F. c #6BAE5E",
"G. c #65A659",
"H. c #6AB35D",
"J. c #65B158",
"K. c #5F9E61",
"L. c #6C9D6A",
"P. c #6DAC63",
"I. c #68A864",
"U. c #71AD65",
"Y. c #74AC6A",
"T. c #74A96A",
"R. c #6DB263",
"E. c #6EB369",
"W. c #72B365",
"Q. c #74BB66",
"!. c #75B56B",
"~. c #79B46E",
"^. c #76BA6C",
"/. c #7ABB6E",
"(. c #76B671",
"). c #7BB671",
"_. c #7EBD73",
"`. c #7BBB72",
"'. c #76B870",
"]. c #7CC36E",
"[. c #73C169",
"{. c #7DC372",
"}. c #7FC975",
"|. c #81BA75",
" X c #85BD79",
".X c #88BE7B",
"XX c #81C676",
"oX c #82C375",
"OX c #84CA75",
"+X c #89CC75",
"@X c #85C479",
"#X c #89C47C",
"$X c #86CB7A",
"%X c #8ACC7C",
"&X c #8AC476",
"*X c #86D275",
"=X c #88D276",
"-X c #86D279",
";X c #8BD37C",
":X c #8AD87D",
">X c #87D87F",
",X c #8BCF82",
"<X c #91CC85",
"1X c #95CF8A",
"2X c #8CD584",
"3X c #8FDB83",
"4X c #92DC83",
"5X c #96DB8A",
"6X c #96D687",
"7X c #9AE289",
"8X c #9EEB8A",
"9X c #9AE387",
"0X c #9BE190",
"qX c #A5EC8D",
"wX c #A9ED8E",
"eX c #A2E789",
"rX c #A6F08D",
"tX c #A8F08B",
"yX c #A3E692",
"uX c #A5ED92",
"iX c #A9ED92",
"pX c #A9ED9B",
"aX c #A6F294",
"sX c #ACF298",
"dX c #B0FB9A",
"fX c #B6FDA1",
/* pixels */
"& $ $ $ $ + $ $ $ $ $ $ $ + + + $ $ $ $ $ $ $ $ $ $ $ $ $ $ $ $ $ $ $ $ $ + + + $ $ $ $ $ $ $ $ + $ $ $ + + + + + $ + + $ $ $ + ",
"$ $ = b l b l $ b b l % $ l l z % % b b e # e e e # # e e b # # b l l % # l l % $ % = = e # # e b b b e # % b q e b b % $ = $ + ",
"$ = % b V m m q 9 Z Z Z 8 w Z Z d u A ..o. .Q o.o.o.Q Q o.X.X.s f ..A A a a A A A a f X.X.o.Q Q o.o.o.#.X.Q o.=.o.o.+.O.q = * + ",
"+ = B 0 2.P.(.(.!.~.).~.~.P.!.(.).).~.{.oXoX{.{.oXXXoX{.oXXX}.oX/./.^.!.!.E.E.W.!.~.W./.oX}.oX{.].XX}.}.}.].OX7X%XoXA.2.O.% $ $ ",
"+ k m 5.9X4X_./._.`.~._.`.]././._.)._.).~._.`.`.~._._._.).~._._.{././.XX#X%X$XoX@XoXoX/.^._._._._.~.~.).).~.~.Y.T.Y.5XXX-.F $ $ ",
"$ % %.5X].W d f d d 0 0 A f d 0 w Z a w 7 8 m w 8 7 r r r 7 8 Z Z d a a S A S d 0 Z d d 0 7 r r w q X @ q q q v 8 o ` iXM.S # $ ",
"$ O 4.aX} 3 7 v D m B h h C N B % b C N n % z B B b % n B B % % B N B = # N N N b # b B B z $ b B N N % = J G *.;.f 1 +XI.Z = $ ",
"+ # y.eX} 5 Y =.:.H b B = % B B B % l B B B % z B B l $ n B B = % B B B l % B B B b $ b B B z $ l B N n l h &.pX].K K -XW.Z = & ",
"+ % k.eX{ 1 1.fXM.d B N N $ k B N B % l B N B % l B B l $ b B B = % B B B l % n B B b $ l B B b $ b n B J l t L.k.2 P =XP.9 l & ",
"$ # k.eX,.> %.I.5.w z B N B * = B B B % l B B B % l B B l $ b B B l % B B B l % b B B B % l B B n % = B N N e . w 4 P =XW.8 $ $ ",
"$ # y.8X<., @ w H b $ z B B B % l B N N % l B N B % l B B b $ b B B l % B B B l $ b B B B % k B N n % % N N N B % > K ;XW.d = $ ",
"$ # t.eX| 5 @ = N B b $ l B B B % l B B B % l B B B % l B B b $ b B B l % B B B l $ b B B B % % N B N % % n B B n @ 5 ;XW.a l $ ",
"$ # u.qX<.5 0 = k B N b $ l B N N % l B B N % l B B B % l B B l $ b B B l % n B B b $ l B B B = % B B B l * b N r 0 5 %X!.Z l $ ",
"$ # u.qX<.3 0 N k % N B n $ b B N B $ l B N B % l B B B % l B B b $ l B B l $ n B B n $ l B B B l = n B B x $ b m , P ;XY.m l + ",
"$ # t.qX<., 8 N B = $ B B b $ z B B B % l B B B % l B n B % l B B b $ z B B l $ b B B n % l B n B l $ b N N b $ = 0 P -XW.8 % $ ",
"& # w.uX| 5 X b N B l k N n b $ z B N N % l B N n % l B B B % = B B b $ l B B l $ b B B B % l B N B z $ b B N B % X 6 =XQ.a $ $ ",
"$ # t.iX} 5 0 % l B B = % N B n $ z B B N % l n N N % l B N B % = B B b $ b N N b + b B N B % l B B B b % l B B m > 3 ;X!.A k + ",
"+ # t.qX,., 0 b % l B B = % B B b h z B N N % c C m e # e r n n = % C C n l b N m b + z B N n % = B B B B % l B r 0 5 +X~.A l $ ",
"$ $ t.qX,.> 8 n B % l B B = $ N n N % l N N M A X.E p 5 1 y Z m N 8 y 3 9 , > y u M b + z C b n % % B B B n % l r 3 2 =XU.u = $ ",
"* O 4.rX<.4 X b N B = l B B = % B B N % l M +.1.a.a.a.x.Z.c.#.H w p 7.R.R.P.M.6.9.Q D b % l B N B % % B B B B % @ 3 2 OX~.0 % $ ",
"* # 4.qX] 5 8 $ b B B $ l B B * * B B B e  .<.-X{.D.F.I.Q.sX=.d r 6 /.8XJ.E.V.U.sX1.s D N * z B B B l % B B B B # > 4 +X~.A % + ",
"$ + t.iX,.5 4 b $ b B n * l B B h % n C +.' >XE.Q a 9 K {.x.E q b a y.5X<.2 9 > q.:X) s M n * l B n B l % B B n m 8 ; +X~.A l + ",
"$ $ r.iX( 3 0 N z $ b B n % l B N = # +.>.-XE.p m m 0 &XQ.T A b + b d m.0X<.E Z ; d.%X^ f m B % l B n B l % n B b 0 : oX~.A l $ ",
"* O t.iX<.> q N B l $ n N n % l N N ..) [.;XE 8 e , ~.$XU Q m N N $ b d N.4X' R d ; c.=XL Z m n = l B B B l % n m , 1 OXU.a b $ ",
"k O 4.rX] 3 # l N B l # N B B % q +.>.Z.-X! w m   I.-X^ f 8 b B B b $ b f B.2X,.R d : Q.-XK Z C B l l B N B z $ e < 1 ].W.3 % $ ",
"$ # 0.iX} 1 8 $ l N B l % B n b A ) Z.:XW > m 7 n.;XU f m l % B N B b + m f K.2X{ Y y 2 %XD.1 S m N l l B N B l # 8 1 ].^.f = $ ",
"+ # t.iX_ 4 w b $ N B n l j N G $.C.=X( u q o u.;XU i m B B x = N N B b $ N f D.2X>.Y 3 K +Xh.5 S m B l % N N n b @ > oX^.A l + ",
"* # w.iX=.> r B b $ n n B l q X.v.4X( u M # 4.5X' Y w # z B B l % n B B z $ m Q I.2X' Y 3 ^ 4Xs.Y S m n % % B B N q ; oX^.A l + ",
"k O 4.aX,.> # B B l * B N M R h.aX8.d q @ ;.pX6.p Z N b + z B m l = B N n l $ m  .oXOX~ s y ,.7Xf.E G N B = % B N 0 : /.^. .b + ",
"$ # 0.wX] 3 # = B B x % m p h.aXd.s V # &.yXs.K w # n n b $ b b m l % B N B z $ m =.:XZ.T y 3 1.uX7.Q G N B = % m < : /.W.R b + ",
"+ # u.qX( 3 r % k B C b > h.pXh.p q w %.6Xf.P A b % = n B x $ b n B l % B B B z % Z ,.3Xv.5 u y 7.yX1.s F B B = % 0 : Q.^.s = + ",
"$ q u.uX/ 8 r N $ b m 0 u.yXa.E Z 8 &.$Xx.~ s q N B = = B B b $ l B B k $ n N B b 7 s 3.uXj., r p h.6X2.d C n B l @ : Q.^...= + ",
"$ # y.rX_ X b B n % e u z.3X) f r 9 u.9X[ $.a $ z B B = = N B = $ b B B = % B N m w , 6.uXk.0 q Z K OX`.0 b B N m q   /.^. .b + ",
"& # 8.rX{ > % B N B % r Y v.2XW a r p x.:X' X.m $ b N B = = B B z $ b B B = % m w y _ 7Xh.i r C 9 N.;X2.G % k B N r ; W./. .e + ",
"$ q t.wX( 3 q % N B B # d T v.%XW w a 5 c.=X' X.e $ b B B % = N B x $ b B N # 8 5 / 6Xh.5 a m w n.<X#.@.V B j % n 0 : R.^. .b + ",
"+ q i.iX/ , m e % N N n # d L C.;XE 0 a 5 D.:X' ..b $ b N N % % N B b $ z N v < L ;Xc.i a w 9 n.<X=.Z % n B B % % w : W.^.u = $ ",
"+ q i.iX/ > N n = k N N n # a L Z.+XE w d 6 R.:X( A e + b B n % % n n b $ b s T $XD.i a a , m.<X#.H C = * B N B = @ > Q.].f % $ ",
"$ # y.wX' X = B n l l B B N # d L ].%XY a a Y {.*X^ A q $ b B B k % n B c u K Q.$Xi 0 g , n.<XQ F C N n l $ B B n #   W.Q.Q l + ",
"& O 4.rX' , % z N B k % B N b # d W ].OX6 a a ! :XH.L Z b $ b B B = % b A L C.%X! u 0 , l.<Xo.r # N N N B l % n N r   F./. .e + ",
"+ % 4.qX{ 3 r % l B B = % B B l # p U =XW.f d s $.;XZ.Y Z e $ b N B # a ^ C.;XW 4 s p j.1X%.V C e % B B N B l % N 0 : F./. .e + ",
"+ % y.uX_ , r N % b B B $ = B N l # s ^ =X!.6 Z A >.:Xv.K Z b $ N N A I v.3X( 3 u i M.1X! m B n B b # N N N B l % r : H.Q.d = $ ",
"$ q y.iX/ > b B n $ l B B % b B n e # s ^ ;Xc.y Z  .,.3Xx.K m = # d ^ S.3X' 6 f p j.1X%.m % = B N B b # N n N B l @ ; F.{.f # $ ",
"$ q y.uX_ X l B N b $ z B N % l B n e # f ) ;Xz.Y X.$.3.4Xa.p M b E a.9X} 2 5 6 j.6X..c C n % l B N B b % N N N B e   U.{.A % + ",
"$ @ q.uX' , $ N N B b $ b B B $ z B n l # f ' ;Xv.6.g.A.4XpX2.A Z W Q.8XJ.Q.F.E.yX-.q % b B N $ l B n B b % N N N Z ; G._.A = + ",
"$ @ 4.iX' 3 e % B n B l % B B B % x B N l # d ,.%X^.P.Q.Q.H.,.A Z E 6.A.H.H.R.W.t.r C l $ N B n $ l B n B l % B b d : G./.d l + ",
"+ % t.iX' 3 r l $ B N B l $ B N N $ z B B l # Z H d u Q E Q  .q q Z y : : 1 3 9 # % N n z $ b B b $ z B B B l % M a ; G._.a = $ ",
"$ % t.iX( 3 r B l % B N B l % B B b $ l B B h % N m q # m v m b $ b m m e # m C B % % B B l $ N B b $ b B B B l % r : b.oXf % $ ",
"$ % w.iX=., r N B % = B N N l % n B z $ b B B l * B B z % n n B z $ N B n b % N N n $ l B n l $ n B b $ b B n B k # ; c.{. .# $ ",
"& % r.wX} > = N b B * k N b N l % B B b $ b B B = % N B l = B N B b $ b B B l % B n B $ l N B l $ b B l + b N B n =   c._.f = $ ",
"& O r.wX} 5 # z B N B % l n B B % % B B l $ B N B % = B B = % B B B l $ n B B l $ B B N % k B B l % b B b $ b B N w   l.oXA # $ ",
"* O 5.iX[ 2 q * z B N N % l B B B % l B B l % B N B $ k B B % % B B B z % n B B l $ B N B = = N B l $ B B b $ n n w ; N.#X .% $ ",
"$ % 4.uX| 5 w l $ B N N n $ b N B B % l B B l % B B B % l B B % l B n B l % B B B l $ B N B % l B B l $ b B l * N a : D.#Xs # $ ",
"* % r.iX<.i 0 M b # N B N N $ b B B B % l B B l % B B B % l B B % l B n B l % B B B l % B N B $ l B B l % b B x % 0 : D.%Xs + & ",
"& $ r.iX<.y a A o.H % B n B z $ n B B B % l B B l % N B B % l B B % l B n B l % B N N l % B B B % k B n b $ N D m 8 ; F.%XQ % & ",
"* - 5.iX3.y 0 m.'.;.b % n N B l % B B B B % l B B = % B B B % l B B % l B B B l % B N B l % B N B j k n B x q *.*.f ; I.%XS % $ ",
"* O ;.aX3.E > Y.pX*.F % = B N N l % B B B n $ b B B $ = B N n $ l B B % l B n B l % B B B l % B B B % % B J d .X6X/ : G.;X..$ $ ",
"$ # 4.qX6.Q w d &.G m B % x N N B l % B B B b $ b B B % l B B n $ l B b $ b B N B l = B B B l % B B n = l B r p.m.Q 1 F.3XX.% + ",
"$ % r.sX6.Q v b # q C B B % l B N B % % B B B b % N B B % x B B B $ z B B $ b B B B k % N N B l % B m N h b M a w 9 1 R.6Xd $ & ",
"& % :.yX=X$. .Z d 8 w Z Z Z 8 r r w q X @ q q q # . q e e X # q e 8 . # e q X q r Z Z w 0 Z Z S d a f X.O.A Q X.+.Q _ yXU.r $ $ ",
"& % q l.sX7X$X#X@X@XoXXX@X@X@X|.@X X X|.).|. X X X|.|..X.X X|. X X X|._. X#X|.|.@X@X#X#XoX$X#X#X#XXXOX$X$X%XOX%X%X%XdX4X5.m $ $ ",
"$ x % r 4.P.).W.~.~.).!.W.^.^.`.^.^.`.'.`.^.~.`./.).).!./.).).!.~.)././.W.!.)./.W.~.).).`.^.!.^.~.(.!.U.~.~.~.Y.T.Y.!.y.w b $ + ",
"+ b n $ b Z d u a A d d 0 0 A A Q p Q X. . .p f .... .a u A A f a f d f a 9 d f 0 0 d d d d 0 0 w w w 8 @ 8 8 @ . # w r l * & + ",
"$ = = l $ k b = $ % l l k $ = = = = # e e e = % = = = = % % % = = % = % = % % % % $ $ $ $ $ $ $ $ $ * * $ $ $ & * $ * $ + & $ $ ",
"& $ $ $ $ $ + & + + $ $ $ $ + $ $ $ $ $ + + $ $ + + + + + + + + + + $ $ $ $ $ $ $ $ $ $ $ $ $ & & & $ $ + + $ $ + + $ $ + + $ $ "
};
