/* XPM */
static const char *north[] = {
/* columns rows colors chars-per-pixel */
"64 64 195 2 ",
"   c #030005",
".  c #06000A",
"X  c #09000C",
"o  c #0D0112",
"O  c #120214",
"+  c #180217",
"@  c #15051A",
"#  c #1A041C",
"$  c #15091C",
"%  c #1A091F",
"&  c #1C0624",
"*  c #1C0925",
"=  c #1D072B",
"-  c #1C0929",
";  c #170929",
":  c #1E0831",
">  c #1F0631",
",  c #220624",
"<  c #210925",
"1  c #21072D",
"2  c #220A2D",
"3  c #2B0A2D",
"4  c #2D052B",
"5  c #310A2E",
"6  c #230731",
"7  c #2D0631",
"8  c #250A32",
"9  c #2A0C35",
"0  c #2D0C39",
"q  c #320C35",
"w  c #390C36",
"e  c #320D3D",
"r  c #3B0E3D",
"t  c #3C073B",
"y  c #2C1035",
"u  c #2E103B",
"i  c #34113D",
"p  c #39113D",
"a  c #3D183E",
"s  c #400F3E",
"d  c #340D41",
"f  c #3A0E43",
"g  c #3F0F4A",
"h  c #351141",
"j  c #3B1244",
"k  c #3E1349",
"l  c #3F184B",
"z  c #410B4A",
"x  c #4B0E4C",
"c  c #430B44",
"v  c #421345",
"b  c #43144C",
"n  c #4B134C",
"m  c #45184C",
"M  c #49184D",
"N  c #441847",
"B  c #52144D",
"V  c #4A0F51",
"C  c #540F5B",
"Z  c #560F57",
"A  c #461550",
"S  c #4C1453",
"D  c #471850",
"F  c #4C1954",
"G  c #4F1A59",
"H  c #4F175A",
"J  c #521455",
"K  c #591657",
"L  c #521955",
"P  c #55155A",
"I  c #5C165F",
"U  c #5A155D",
"Y  c #531A5B",
"T  c #5A1B5D",
"R  c #5C225C",
"E  c #5C1661",
"W  c #5C1B63",
"Q  c #621B65",
"!  c #681F66",
"~  c #641C6A",
"^  c #6A1D6D",
"/  c #611666",
"(  c #6C1D71",
")  c #701F74",
"_  c #5C2464",
"`  c #632265",
"'  c #662369",
"]  c #6C236A",
"[  c #642A65",
"{  c #6B326F",
"}  c #6D2471",
"|  c #722375",
" . c #742B73",
".. c #742179",
"X. c #722C79",
"o. c #7B2B7C",
"O. c #6B3271",
"+. c #733475",
"@. c #743A75",
"#. c #793973",
"$. c #7A337C",
"%. c #773C7D",
"&. c #7C3776",
"*. c #7F427F",
"=. c #764272",
"-. c #7E2F81",
";. c #7A2780",
":. c #7D3780",
">. c #7E4282",
",. c #812D87",
"<. c #823186",
"1. c #863B8A",
"2. c #8B3C8C",
"3. c #873986",
"4. c #8E448D",
"5. c #8B4D8E",
"6. c #844B87",
"7. c #92458E",
"8. c #8C4C91",
"9. c #8C4191",
"0. c #924791",
"q. c #944C94",
"w. c #984B9A",
"e. c #8E5392",
"r. c #935394",
"t. c #96569A",
"y. c #9B559B",
"u. c #9A599B",
"i. c #995E97",
"p. c #A0529F",
"a. c #9C629C",
"s. c #966195",
"d. c #9D54A1",
"f. c #A24CA2",
"g. c #A455A5",
"h. c #A65DA6",
"j. c #A757A9",
"k. c #A75AA9",
"l. c #AA5DAB",
"z. c #A957A9",
"x. c #B15EB0",
"c. c #9F65A0",
"v. c #A265A3",
"b. c #A464A4",
"n. c #A368A6",
"m. c #A56BA6",
"M. c #A66AA9",
"N. c #AB6CAC",
"B. c #AE60AD",
"V. c #AA71A9",
"C. c #B26EB3",
"Z. c #BA6FB8",
"A. c #AE71B0",
"S. c #B475B4",
"D. c #B47BB2",
"F. c #BD77BC",
"G. c #BA7EBB",
"H. c #B87CB8",
"J. c #C07ABF",
"K. c #C37CC3",
"L. c #BD83BE",
"P. c #B784BA",
"I. c #C080BE",
"U. c #BF82C2",
"Y. c #C183C2",
"T. c #C28BC2",
"R. c #CA85C9",
"E. c #C192C3",
"W. c #C995C9",
"Q. c #CC9BCD",
"!. c #C69AC9",
"~. c #CEA4CE",
"^. c #D6ACD7",
"/. c #D4B4D3",
"(. c #DBBBDC",
"). c #E1AEE0",
"_. c #E8C8E7",
"`. c #EDCCED",
"'. c #E9C9EA",
"]. c #F0CBEE",
"[. c #EFD1EE",
"{. c #EFD8ED",
"}. c #EFC0F0",
"|. c #F7CDF8",
" X c #F1CFF2",
".X c #EFD0F0",
"XX c #F3D3F2",
"oX c #FBDDFB",
"OX c #FDE3FC",
"+X c #FDECFD",
"@X c #FFF5FF",
"#X c #FFF2FF",
"$X c #FFF9FF",
"%X c #FFFAFF",
"&X c #FFFCFF",
/* pixels */
"- - - - - - - - - * * - = 9 *   8 = - = - - - - - - - - - - - - - - - - - = 9 O * 0 = - - - - - - - - - - - - - - - - - - - - - ",
"- - - - - - - - - - - - = 0 - . 8 = * - - - - - - - - - - - - - - - - - - = 9 o * 0 = - - - - - - - - - - - - - - - - - - - - - ",
"- - - - - - - - = - - - = 0 - . 8 = * - - * - - - - - - - - - - - - - - - = 9 O * 0 = - - - - - - - - - - - - - - - - - - - - - ",
"- - - - - - - - = - - - = 9 * . 9 = - - - * - - - - - - - - - - - - - - - = 9 O % 9 = - - - - - * * * - - - - - - - - - - - - - ",
"* - - = 2 8 8 9 9 8 8 8 8 e 2 O e 8 8 8 8 - - - - - - - - - - - - - - - - = 0 O % 8 = - - - - - - = - - - - * - - - - - - - - - ",
"- - 8 0 h v M M D D D D m Y b q F k j d 0 8 2 = - - - - - - - - - - - - - = 9 o % 9 2 8 9 9 9 9 0 9 9 9 8 8 2 2 2 2 = - - - - - ",
"= 8 e b Y T E I I I E U U Q Z c U S F F k e 8 = - - - - - - - - - * = * - = 9 O < d e k v D F F D D D m v k j h 0 9 8 = - - - - ",
"9 e b T ` :.t.M.M.m.v.n.n.M.v.s.M.n.@.T F k y 8 - - - - - - - - - < 2 - - 2 0 O 9 b A F W U I I E U P J J H b g k p 9 8 2 2 = = ",
"X + q n J s.+X$X@X$X$X$X$X$X$X$X@XOXT.L n e < $ @ @ @ @ @ @ @ $ % & $ $ $ & < o 3 N n e.Y.V.m.M.m.v.a.c.a.v.m.5.Y A j e 9 9 8 8 ",
"< 9 h F Q | q.C.F.J.H.S.K.K.F.C.u.4.+.n f 3 # O X X X X X X X X       . X o O O , q v ^.#X+X#X@X#X+X#X#X+X+X#X(.a 3 , + o X . . ",
"e e v F W ^ ^ ( | ..K I ) ( ( ( ^ / Q T F b j f e d e e e e e d 9 o < e 0 0 u f b J W X.w.k.j.d.j.x.B.l.k.u.8.X.r e p 9 < - * * ",
"= = 8 e f b m b A Y q v G b b b b b f d 0 8 8 = 2 8 8 8 8 2 = 6 e X 2 8 1 = - 8 0 d b H J W ~ ~ ~ ^ ~ Q W Y P E q q j 9 8 8 2 < ",
"- - = 2 8 8 2 2 9 j O < d 6 8 8 2 2 2 2 = = - * - - - - - - * = 0 X 2 2 * - * - 2 8 9 i h h j k j j h h f p f S , < y = = - - - ",
"- - - - - - - - < e . % 9 = - - - - - - * - - - - - - - - - - 2 0 X 9 < * = - - - - < 2 2 2 8 8 8 8 8 8 8 2 8 f # * 8 = - - - - ",
"- - - - - - - - = e . * 0 = - * - - - - - - - - - - - - - - - 2 0 X 8 = - = = - - - - - - = = - - - - - - ; = d @ @ 2 - - * - - ",
"= = - - - - - - = d . * 0 = - - = - - - - - - - - - - - - - - 2 0 . 2 2 - * - * - - - - - = - - - - - - = * = f @ $ 2 = - - - = ",
"= = = = = - - * - e . < 0 = * = - - - - - - - = = - - - - - - 1 0 . 2 < = - * - - - - - - - - - = - - = = * = d O $ 2 = - * - - ",
"- - - - - - - - = 0 . < 0 = * = - - - - - - - - - - < 2 2 2 - 2 e o 8 2 2 2 - - - - - - - - - - - - - - - * : d O $ 2 = - - - = ",
"- - - - - - - - 1 0   * 0 = - - - - - - - - - 2 2 9 9 e e i u h m & f h e u u 0 9 8 2 - - * * - - - * - 1 * = d o $ 2 = - - - - ",
"= = = = = = = = 1 9   * 0 = = = = = = = - = 8 9 d j k b b b n S K r L F b b v b j i 9 2 = - - - = = = = 1 - 6 e o $ 2 = = = - = ",
"9 9 9 9 9 9 9 9 0 u . < d 0 0 0 9 9 9 9 0 e j v H Y _ [ O.O.{ +.$.L ` ' { %.>.[ M k p 9 8 8 8 8 2 2 8 8 9 0 0 d O % 9 8 8 8 8 9 ",
"* - * - - * - * * *   O * % * * * * * * * 2 9 r v M /.@X+X+X+X+XoX`._.`.`. XoX6.r p 9 < @ O o X o o o X X X . .     X o X X X X ",
". . . . . . X X X X X X o X X o o o X     X O , 3 w =.V.D.D.G.G.L.L.T.T.E.T.D.[ w q , @ o . . . X O $ $ % % % * * * * - * * * * ",
"9 9 9 9 0 0 0 0 e e 0 e e 0 e d e i y o $ 2 2 y p v f n H H H J J P P J H H S L b 7 v j d e e e e e e e 0 0 0 0 0 0 0 0 0 9 9 9 ",
"= = = = = = = = = = = = = = = = - = e X * 8 2 9 9 e h h h j j k k k k v v k k m p & k 9 2 1 1 1 = = = = = = = = = = = = = = = = ",
"- - - - - - - - - - - - - - - - * = e . * 2 * 2 2 2 2 8 8 8 8 8 8 8 8 9 9 9 9 e 2 o d 2 * * * * - - - - - - - - - - - - - - - - ",
"- - - - - - - - - - - - - - - - - 1 e . - 2 * - - - - - - - - - - - - - - - = 9 < . e = * - - - - - - - - - - - - - - - - - - - ",
"- - - - - - - - - - - - - - - - = = e X - 8 - - - - - - - - - - - - - - - - = 9 < . e 1 - - = - - - - - - - - - - - - - - - - - ",
"- - - - - - - - - - - - - - - - * = 0 X < 8 - - - - - - - - - - = - - - - - = 0 * . 0 1 - - = - - - - - - - - - - - - - - - - - ",
"- - - - - - - - - - - - - - - - * - 9 X < 2 * * - - - - - - - - - - * - - - = 0 * . e = - - - - - - - - - - - - - - - - - - - - ",
"- - = 2 8 8 9 9 9 0 0 9 0 0 9 0 0 0 f + e 9 - - - - - - - - - - - - - - < 2 8 d 3 @ g 0 9 9 9 9 8 8 8 8 8 8 8 2 2 2 = - - - - - ",
"- 2 8 9 p j m D F Y Y Y Y L F Y G G Y w F j 9 2 - - - - - - - - - - = 8 9 0 h D v q E S m m m m N v v k k j h p y 9 8 2 - - - - ",
"9 0 h b F W W ~ ^ ( ^ ( ^ ^ ( ( ^ ^ ] K ^ Y b 0 8 1 1 - - - = = 2 8 8 0 r b S W T n ( U U P U E U U P J H S S b b f e 8 2 - = = ",
"d k H T ' } q.g.j.z.j.g.f.f.f.f.f.g.p.] | } W S f e 0 0 0 0 0 0 0 e h b J E ~ | ` K <.t.d.t.r.r.8.8.5.5.6.6.>.+.W K S k d e 0 0 ",
"O & q v n R [.+X+X+X+X#X+X+X+XOXoXXX|.y.U K s , O X . . . . . . X o @ , 5 r n K K B P.+X+X#X@X@X@X+X+X+X#X@X$X'.R n j q 2 * & * ",
"9 e v F W ! 0.Z.F.J.Y.I.R.R.R.R.K.K.Z.o.^ Q n e 2 * * % % % % % % O @ 9 w v S K T Q -.4.0.r.u.n.A.A.C.A.M.v.v.r.n 5 3 3 & @ O O ",
"< 9 e j A G P Q } o. .` o.| } } ^ ^ W Q R L v e 8 2 2 2 2 2 2 = u * & h e j m F Y T E P U P U U E E E U U P C C Y 4 e b i 0 9 0 ",
"= 2 8 9 0 i j k b H v q Y S A S S A m l j i 9 8 - - - - - - - = 9 % @ 0 2 8 9 0 e e h h h h j j h h h j j h h j v @ 3 e 1 1 = 1 ",
"- - - < - = 2 8 8 0 2 O e 9 8 9 9 8 9 8 8 2 = - - - - - - - - = 0 $ @ 9 - - - - = = = 2 8 8 1 2 2 2 2 2 2 2 2 8 d X - 0 = = - = ",
"- - - - - = - - = 8 % . 9 = - - - - - - - - - - - - - - - - - = 9 @ % 9 = - = - - = * = = - - * - - - - - - - 1 e   * 9 * - * - ",
"- - - - - - - - = 2 % . 0 = - - - - - - - - - - - - - - - - - = 9 @ @ 8 - - = - - - - - - - - - - - - - - - - 2 0 . < 9 ; - - - ",
"- - - - - - - - * 2 * . e 1 * - - - - - - - - - - - - - - - - = 9 O $ 8 * * - - - = - - - - - - = - - - - - = 6 0 X 2 8 - - - - ",
"- - - - - - - - * 2 * . 0 - * - - - - - - = = = 8 9 9 8 8 8 8 6 e # < 0 8 2 2 = - = - - - - - - - - - - - - - 2 0 . 2 8 - - - - ",
"* * * * * * * * - 2 %   0 = * - * * - = = 2 8 u j k v b v b b b D e p m j h h i i 9 9 8 2 = - - - - - - - - - 2 9   2 2 * - - - ",
"2 2 1 1 1 1 1 1 > 8 % X e 6 2 2 2 8 8 9 0 e b H E ~ Q Q Q W W E Q n S W J H S S b v j h 0 9 2 - = = = = = = 1 8 9 X 0 8 = 2 2 8 ",
"e e e e e e e e d p * X 0 0 e e d d d d j A T ^ ..;.,.<.<.-.<.<.2.$.:.2.1.1.1.$.} W W J m j e 9 8 8 8 8 9 9 9 0 8 X 8 9 9 9 e e ",
". . . . . . . .         X X . . . X . X O # q v n @.).`.'.`.].].].XXXXXXXXXX`.XX^.n v r 3 , O X X . . . . . X X X   X X X . X X ",
"* * * * * * * * % * * - * * - - * * - @ o 3 v L W ] q.b.S.Q.Q.W.W.W.Q.~.!.L.V.m.r.W K F b 9 @ 2 2 1 < 2 1 2 2 2 2 2 2 9 8 2 2 9 ",
"8 8 8 8 9 9 9 9 9 9 9 9 9 9 0 0 0 0 d 9 o j m H Y W P P P J J J K K J H S V x S S F F m G q O f 8 2 2 2 = = = = 2 = = 2 2 2 2 2 ",
"= = = = = = = = = = = = = = = = = = 0 2 . 9 9 0 d j j k k j j j j j j j k k k k j h h e k 3 o e 2 * - - - - - - - - - - - - - - ",
"- - - - - - - - - - - - * - - - - & 0 < . 2 = = 2 8 8 8 8 8 8 8 8 8 8 8 2 8 8 8 8 8 9 8 h < X e 1 - - - - - - - - - - - - - - - ",
"- - - - - * * - - - - - - - - - - = 0 2 . 8 = - - * - - - - - - - - - - - - - - - - 1 = e - . e 2 - - - - - - - - - - - - - - - ",
"- - - - - - - - - - - - - - - - - = 0 < . 8 = - - - - - - - - - - - - - - - - - * * - = 0 - . e 2 - - - - - - - - - - - - - - - ",
"- - - - - - - - - - - - - - - - - = 0 - . 2 - - - - - - - - - - - - - - - - - - - * - & 0 - X e 2 - - - - - - - - - - - - - - - ",
"- - - - = - - - - - - - = - - - - 1 e - . 2 = - - - - - - - - - - - - - - - - - = - = = 0 - X e 1 - - - - - - - - - - - - - - - ",
"- = 2 2 8 9 9 9 0 0 0 0 0 e 0 e u e j 9 O 9 8 = - - - - - - - - - - - - < 2 2 8 9 0 0 0 j 3 O j 9 8 8 8 8 8 2 2 2 - - - - - - - ",
": 8 9 e j m D F Y Y Y L Y G L Y L F E b < h 0 2 - - - - - - - - - * * - 2 9 i k n F Y L W S w T D m v v k k j h i 9 8 = - - - - ",
"2 9 p m G P W ~ ! ~ ! Q Q ~ Q / U U ( T r S e 9 2 = = = = = = = = = 2 8 9 f S Y ~ ~ W / ^ U x Q U P P P J S V z f h 9 8 2 - - - ",
"y p m Y O.N.S.L.U.L.Y.G.G.G.Y.L.E.P.1.Q n T m h 0 9 9 9 9 9 9 9 0 e e d k J ~ | ..2.C.S.S.M.a.N.N.M.M.M.M.n.a.i.%.S k e 0 9 9 0 ",
"2 0 v x >.oX@X+XOXOXOX+X+XOXoX{.XX}.5.n v j 9 - @ o o o o o o o X X X o @ 3 s L J i.oX+X@X@X#X+X#X#X+X+X+X#X@X&X/.q , O X X X X ",
"- 7 r v L 3.q.q.7.7.7.0.4.7.4.#.&.2. .K n v w 2 - * * * * * * * % * * - < q b K B ' 1.9.q.q.w.y.g.g.h.h.h.b.b.t.@.v q 2 - & * & ",
"j k b H Y P W Q W W W W T E E t S E H G A b j e 0 9 9 9 9 9 9 9 9 9 9 8 9 e b T f F W W Q Q ~ ! ~ ~ ~ Q Q W T S j j u 9 2 - = = ",
"1 8 8 9 e h h j j j f h h d j # e k 9 9 8 2 - = = - - - & - - - = = = - * - 9 j # q j j k v l k v v v v j j h h e 9 8 - - - - - ",
"- - - - = 2 2 2 2 8 1 1 - 1 9   < q * - = - * - - - - - - - - - - = = - * * 6 e X * 2 = 2 2 8 8 8 8 9 9 8 8 8 2 2 - - - - - - - "
};
