/* XPM */
static const char *south[] = {
/* columns rows colors chars-per-pixel */
"64 64 226 2 ",
"   c #020515",
".  c #020916",
"X  c #00061A",
"o  c #040B1B",
"O  c #090C1D",
"+  c #050D23",
"@  c #090E21",
"#  c #050D28",
"$  c #061124",
"%  c #091124",
"&  c #05132B",
"*  c #0C152B",
"=  c #0E1A2E",
"-  c #00192E",
";  c #10172D",
":  c #101B2F",
">  c #0D1730",
",  c #0F1B31",
"<  c #0E1C39",
"1  c #041934",
"2  c #111C33",
"3  c #121E39",
"4  c #0F2032",
"5  c #122036",
"6  c #14223C",
"7  c #19253D",
"8  c #19283F",
"9  c #0F2643",
"0  c #052842",
"q  c #092A49",
"w  c #152542",
"e  c #192642",
"r  c #162845",
"t  c #1A2945",
"y  c #172748",
"u  c #18274B",
"i  c #162B4B",
"p  c #1A2B4B",
"a  c #07334E",
"s  c #1B314C",
"d  c #0E2F54",
"f  c #162E53",
"g  c #1A2E52",
"h  c #1A2E58",
"j  c #0C3854",
"k  c #043755",
"l  c #163054",
"z  c #1B3155",
"x  c #15345C",
"c  c #1D355C",
"v  c #1B3A5D",
"b  c #202E4C",
"n  c #21304D",
"m  c #213354",
"M  c #21355D",
"N  c #22395D",
"B  c #1D3661",
"V  c #1E3A64",
"C  c #163F6F",
"Z  c #1E3C6A",
"A  c #153E63",
"S  c #183F71",
"D  c #093F65",
"F  c #213661",
"G  c #223B64",
"H  c #283F64",
"J  c #223D6C",
"K  c #20376A",
"L  c #223F72",
"P  c #0D445E",
"I  c #0B4269",
"U  c #184164",
"Y  c #1C426C",
"T  c #124569",
"R  c #0E4972",
"E  c #164375",
"W  c #1B4274",
"Q  c #134C74",
"!  c #1B4975",
"~  c #1B457A",
"^  c #164C7B",
"/  c #1C4B7C",
"(  c #16527D",
")  c #1B527E",
"_  c #1D5273",
"`  c #254166",
"'  c #23416D",
"]  c #29436D",
"[  c #2A4065",
"{  c #234373",
"}  c #2A4472",
"|  c #2A4974",
" . c #24467A",
".. c #29477A",
"X. c #244A7C",
"o. c #2B4C7B",
"O. c #264874",
"+. c #324E79",
"@. c #275379",
"#. c #14627E",
"$. c #28637B",
"%. c #1C4D82",
"&. c #1C5284",
"*. c #1D548A",
"=. c #1D5C8C",
"-. c #1F5D90",
";. c #254C82",
":. c #2A4D81",
">. c #304E80",
",. c #225284",
"<. c #2C5283",
"1. c #235A84",
"2. c #24548A",
"3. c #225C8D",
"4. c #2B598E",
"5. c #295689",
"6. c #305384",
"7. c #31588C",
"8. c #31548F",
"9. c #235D93",
"0. c #285C94",
"q. c #325B92",
"w. c #196888",
"e. c #1C6395",
"r. c #1D679E",
"t. c #1E7695",
"y. c #22618E",
"u. c #256189",
"i. c #226295",
"p. c #236294",
"a. c #2C6391",
"s. c #236897",
"d. c #23659A",
"f. c #24699C",
"g. c #2B6B9E",
"h. c #2A6699",
"j. c #366195",
"k. c #23749B",
"l. c #2D769A",
"z. c #277A9A",
"x. c #286FA3",
"c. c #226DA2",
"v. c #356DA4",
"b. c #2A74A4",
"n. c #2A7EA3",
"m. c #2876A7",
"M. c #347DA9",
"N. c #307DA4",
"B. c #348396",
"V. c #1D8EA7",
"C. c #2583AD",
"Z. c #2A81AB",
"A. c #2F88A8",
"S. c #3589A9",
"D. c #2A91AA",
"F. c #2E8DB5",
"G. c #2D86B0",
"H. c #3B8DB9",
"J. c #368DB5",
"K. c #2B99B8",
"L. c #3C93B5",
"P. c #3693B9",
"I. c #3D95B9",
"U. c #3C9ABC",
"Y. c #3798B6",
"T. c #3695AD",
"R. c #2FA9BF",
"E. c #4599AE",
"W. c #4296B7",
"Q. c #4296B9",
"!. c #4D9DB8",
"~. c #47A6BB",
"^. c #3C9CC2",
"/. c #339DC3",
"(. c #3CB5CA",
"). c #36B2CF",
"_. c #459DC1",
"`. c #42A9C5",
"'. c #47A7C6",
"]. c #4AB7CA",
"[. c #50BEC9",
"{. c #49B7D2",
"}. c #46BDD6",
"|. c #47BED9",
" X c #5ABDD0",
".X c #45C0CF",
"XX c #54C2D4",
"oX c #5AC5D9",
"OX c #4EC2D7",
"+X c #6DCACF",
"@X c #6ECBD2",
"#X c #62C9DC",
"$X c #73CCD3",
"%X c #75CBDA",
"&X c #7BCDDA",
"*X c #77C6D3",
"=X c #6CD1D9",
"-X c #75D3D5",
";X c #7BD2DE",
":X c #79D6D8",
">X c #56CAE2",
",X c #6FD6E6",
"<X c #6AD5E7",
"1X c #7CD4E1",
"2X c #73D9E4",
"3X c #7EDBE6",
"4X c #7FDCE7",
"5X c #7CDBE4",
"6X c #7DDCE8",
"7X c #73D9E7",
"8X c #62CDE3",
"9X c #7AE1EA",
"0X c #81DBE6",
"qX c #83DEE9",
"wX c #85D9E5",
"eX c #83E2EB",
"rX c #8AE3EB",
"tX c #95EAF3",
"yX c #9AECF3",
"uX c #95E6F1",
"iX c #97EBF1",
"pX c #ABF6FA",
"aX c #A5FAFD",
"sX c #ABFDFD",
"dX c #A4F3F8",
"fX c #B3FFFF",
/* pixels */
": : : : : : : : : : : : 3 i <.f.5X5Xf.:.V w 2 = : : 2 3 w z Z p.,X4X=.L v f w 3 : : 2 , : : = 3 * * p 6 = 2 2 : : : : : : : : : ",
": : : : : : : : = : : : 3 f ~ i.qX;Xd.;.B 6 2 : : : 2 3 w c J i.7X4X9.{ F z w 3 : : 2 2 : : = 3 2 o p 6 = 2 2 : : : : : : : : : ",
": : : : : : : : = : : : 3 f <.f.5X%Xd.;.B 6 2 2 2 : 2 3 r c ' i.5X5Xp.} F z w 3 : : 2 : : : = 5 3 o t 3 : 2 : : 2 2 2 2 2 2 2 2 ",
": : : : : : : : = : : = 3 g :.d.5X&Xd.:.F 6 2 2 2 : 2 3 r c ' p.5X5Xd. .F z w 2 : : 2 : : : = 6 5 o e < = : : : : : : : : : : : ",
": : : : : : : : : : : , 3 l 5.f.5X&Xd.;.c 6 2 2 2 : 2 3 r c ' i.5X3Xi. .F z w 2 : : : : : : , 5 6 o 7 6 , 2 : : : : : : : : : : ",
": : : : : : : : : : : , 6 l 5.c.qX&Xd.;.c 6 2 2 2 : 2 3 r c ' i.3X3Xd. .G z w 2 : : : : : 2 = 6 t . 5 t , , : = : : : : : : : : ",
": : : : : : : : = : : = 3 z ~ d.0X1X9.X.v 6 2 2 : : 2 3 r c ' i.3X3Xd. .G z w 2 : : : : : : , 6 p . 3 n 6 3 2 2 2 2 2 2 2 2 2 2 ",
"= = , , = : : : , : : 2 3 z  .d.;XqX-. .v 6 2 2 , : 2 3 r c ' p.3X3Xd. .G z w 2 : : : : : 2 2 6 p o 5 p w 6 5 3 3 3 3 3 3 3 3 3 ",
"6 6 6 6 6 3 3 3 3 3 3 3 6 z  .9.*XrX=. .M 6 , 2 2 2 2 3 r c { 3.4X5Xs.X.J c e 2 , 2 : : 2 2 3 r N X r G g g i y r r y w w w w w ",
"c F F M M c g g g p g l x G ..9.*XqX3. .M 6 2 2 : : , 3 r B  .=.3X5Xf.;.{ c w 3 , : : : 2 6 w z '   t o.J J J G B c c c c z z g ",
"X.;.;.;.;.X. . .{  .2.4.;. .:.r.;XrX=. .B 3 2 , : = , 3 p G  .=.qXwX=.X. .c r 3 , : : 2 3 w z G o.+ z 4.%./ X.{ { { { { J J V V ",
"f.f.f.d.f.d.d.d.-.f.m.x.g.5.;.9.S.B.0.X.c 3 2 2 = = = 3 p G X.f. X!.9.X.{ c r 3 = = = , 6 y c Z 7.T u.^.K.C.e.3./ E %.,.&.*.=.=.",
"qXeXqXqX4X5X5X5XeX8XoX0XH.v.8.j.c X 6.6.H p r s t 5 5 w m } 0.^.5XoXH.5.o.] m p e e e e g G ..:.v.( z.7X4X>X9X6X1X%X&X1X3XqXrXqX",
"@X@X+X@X@X@X@X@X@X~.=XsXA.Y g m 2   p p 6 , = * > * = = 5 e A S.fX2Xz.f p e 5 : : : : : 2 7 t p @.x w.9XaX[.=X$X-X:X:X:X-X$X+X+X",
"D I Q Q Q Q R R ( ( D.(.t.0 & & * 2 < 3 , * * * * * $ O o + & T B.D.Q # o o o o o o o o o o X X $ 0 #.K.R.w.k a 0 q a j k k I T ",
"} ..o.o.:.:.:.<.j.9.J.aX_.0.<.<.o...| ` N m s p t p t e p ` o.:.- v q.<.| H z p t t p i z H ] o.o.o.,.j h.2. .O.} { { { }  .o.:.",
"B V V B B B V Z { %.J.fXU.*.;.} J B z y 6 6 5 = = , , 2 6 z { >.X p 6.W Z z w 3 2 5 6 3 w z G ' {  ...+ .. . . . . . .} { { { J ",
"g g g g p p f z J ~ L.fXU.*. .G z i r 6 3 , = : : : : 2 3 y B | + p o.Z c t 6 2 : , = , 5 w z G J { | & ..{ J J J J J V B B B B ",
"w w w w 6 w w p G E L.fXU.*.{ c y 6 6 3 2 2 2 2 : : : : 2 6 f H o t ] z p w 3 2 2 , : : 2 6 i c B ' } & ` V c c c z z z g g g p ",
"3 3 3 3 2 3 3 t B X.I.fXU.*.{ z w 3 2 2 : : 2 = : : : : : 3 w m + 5 N y w 3 3 2 , : : : : 3 w g c ' ] * F z p p p p y r w w w w ",
": : : : : 2 3 t F ~ I.fXI.%.{ z 6 3 2 : : : : = : 2 2 : : : < t % 3 g 3 3 2 , : : : : : : 3 w g c { ' % z i w e 6 6 6 6 5 6 3 3 ",
": 2 : : : 2 3 p G E L.fXI.~ ' g 6 3 2 : : : = = : 2 2 : : : , 7 O = t 2 2 : , : : : : : 2 6 p z c ' J + g w 3 3 3 3 3 3 3 3 2 2 ",
": : : : : 2 3 p G ! L.fXI.~ J g 6 3 2 : : : : : : : , : : : , 7 % * t , : = = : : : : : 3 w g B G Z ` + z 6 < 2 2 2 2 2 2 2 2 2 ",
": : : : : 2 3 p G E I.fXW.~ J f 6 2 : : : 2 : : : : , , : : , 7 % * t = : : : : : : : : 3 r c J ' { } @ z 6 , 2 : : 2 : : : : : ",
": : : 2 2 2 3 p H ~ L.fXL.! J f 3 : : 2 2 , : : : : : : : 2 , 7 * * t : : : : 2 : : : 2 3 p F '  .} O.+ z p 6 3 2 2 2 2 2 : : : ",
": : : : = , 3 t G W S.fXL.! H i 3 : : : 2 = : : = = = = = = = 7 * % 6 = = = = = = = , , < i G L  . .| $ N h w 3 2 2 2 , = = = = ",
"2 2 < 3 , < 6 p J ~ L.sXI.~ G i 3 2 2 2 3 < 2 3 3 3 2 2 2 3 , 6 * % 8 3 7 e 7 e t t t t p c ..6.<.7.<.# G ' c z p p p t 6 5 2 2 ",
"6 e e e e e p m ] ;.W.fXQ. .H z t e e w e e e e e e t t t r w t % @ 2 ; : 2 : , , = ; * * 2 w g Y ( ( 0 c G z u 2 , , = , 2 2 = ",
"o o o o o o o + $ + ! E.v + % o . o o o o o o o o o o o o o o o . .   o o X X o o o o o o & & 9 I E.]._ 9 , = * * * * % % * * * ",
"t t t r t t p z ` +.0.3.5...H w o 7 = = : : : : : : : : = = : = = 5 o 8 t t t t t t t t z H ..4.b.rXqXg.o.| ` N m p p p p p p p ",
"5 6 3 3 6 6 w p G ..:.<.:. .G p % t < = 2 2 : 2 2 2 : : : : 2 : 3 6 o 7 3 3 , : 2 2 3 < w c J ;.n.5X5X=. .{ V f 6 , = 2 2 2 2 2 ",
"= = = : = , , 6 i B J L J c i i % t < = 2 : : = : : : : : : : = 2 7 o 7 2 , , : : : : 2 6 z J X.x.4X4Xk.X.{ F i 3 2 2 = = = : : ",
"= = , , 2 , , 3 w g c B c g y w % e 3 : = 2 = : : : : : 2 2 , 2 , 5 O 6 , : : : : : : 2 w c J X.s.5XeXm.X.{ B p 5 2 2 2 : : : = ",
": : : : : : : 2 3 w p p p w w w % p 3 : : 2 = : : : : : : : : : , 5 O 6 , : , : = : : 3 w c J X.e.0XeXZ.;. .V i 3 2 2 : : : : : ",
": : : : : : : : 2 3 5 5 6 3 t e % p 3 = : 2 = 2 : : : : : : : : , 6 O w 3 = 2 2 = : : 2 w c J :.g.0XeXG.,.{ V g 3 2 2 2 2 2 2 2 ",
"2 2 2 2 , 2 2 2 2 2 2 2 2 3 p e % p 6 = : : = 2 : : : : : : 2 = 6 t o t 6 = 2 : : : : 2 w c J :.f.qXeXZ./  .V g 6 3 3 3 3 3 3 3 ",
": : : : : : : : : 2 2 2 2 , w t + p w = : : : 2 : : : : : 2 2 , w p o e 3 : 2 : : : : 3 w c { X.d.qXeXC.&. .J c r w w 6 6 6 6 6 ",
"2 2 2 2 3 3 3 3 5 6 5 5 5 6 w p o p w , : : : 2 : : : : 2 3 3 6 y p o w 3 2 2 : : : : 3 r c { ~ x.rXeXF.,...{ F z g g p p p i i ",
"w w w w p p p p p g g z z z z z o p w , : : : 2 : : : 2 3 3 6 w z M + p 6 3 3 : : : : 3 r c { / Z.9XeXG.%...} Y V V B B B c c c ",
"z c c c B B V V G J J L ' J { ` + m t 2 : : : 2 2 : 2 2 3 6 t p v H & m p 5 3 2 : : : 3 r c { ;.M.eXeXF.9.;...} { J ' J J J J J ",
"/ ! E E / %.%.&.*.&./ ~ ~ 2.9.1.& H z < , : : 2 2 = 2 2 6 r z c J { & H z w 3 2 , 2 : 3 t c ' :.f.6X9XC.c.d.*.~ W E ! / &.&.,.%.",
"~.I.L.L.W.I.U.U.`.^.I.Q.S.P.U.M.1 } F w 3 2 < , : = 2 3 w p c Z  .o.& } V i 6 3 2 2 2 3 i V W 2.x./.).}.{.K.U.L.L.L.L.P.P.I.H.M.",
"sXfXfXfXfXfXsXsXsXsXfXfXrX5XfXU.a G z e e 7 5 2 3 5 6 e p m G :.f.p.< [ ` z r w 7 e e t z H ..o.a.b.).5XsX8XaXfXsXaXdXtXtXdXaXdX",
"S.L.L.L.I.L.I.`.].`.U.L.Y.XX2XK.P 9 o o o o o o O o o o + + 1 j T.S.1   o + o o o o o o o + + + * T V.[.6X).(.'.`.{.{.|.|.}.}.}.",
"&.&.Q ! ! C C / ) =.=.*.d.m.OX#Xd H V z t r r e e t p g m M O.w.5XwXY p s g e 7 e t t p z F ' | ..4.b.#.Z.m.9.3.&.0.p.d.d.f.g.g.",
"z c z z z z z g f c V { h.r.7XrXU c z 6 2 2 3 3 3 6 w p z c <.s.5X0X0...' z r 6 5 7 6 w w z B J { X.:.X z q. .{ { {  . . . ...X.",
"r p p p p p y p p p c G ,.f.,XeX3.V p 6 3 2 2 2 = = 2 6 i c X.d.5X5Xp...V p 6 3 , 2 2 2 3 w g c B Z } . p q. . .{ {  .} } { }  .",
"6 6 6 w w w w w w i z G  .d.,X3X3.V p 6 3 , = : 2 2 3 w g c  .i.5X3Xp. .F g w 2 , = : : 2 6 r p z B ] X p 6.{ { J J J J G G G V ",
"3 3 3 3 6 6 5 5 5 w z G  .d.<X5Xp.' i w 2 = , = , 2 3 e g c } =.1X3X3.{ F g w 3 2 2 2 2 2 3 6 r y z H X p o.V V B B c c c z g p ",
"2 2 2 2 2 3 3 3 3 6 g V { d.oX3Xp.V p 6 2 : : : = 2 5 e g c ' 3.0X0Xp. .V z w 3 3 3 3 3 2 2 3 6 e p N . w ` z z g p i p t w w 6 ",
"2 : : : : : : 2 3 6 g G { 9.oXrXy.V t 6 2 2 2 2 2 2 5 e g N J &.5X5X=.{ Z z y w w w w 6 6 6 6 w e y z . 5 m w w w 6 6 5 5 3 3 3 ",
"= : : : : : : : 2 6 g V { 2.{.tXa.V r 6 3 , 2 2 2 3 6 e g F J &.3X5Xp. .J c z g g g g p p i p i i f c . 2 p 3 3 3 3 3 3 3 2 2 2 ",
": : : : : : : : 2 6 g V J *.XXyXa.x w 6 2 : : : = , 5 r z B J 3.0X3X3. .J F M M c c c c c c c c c H v . 3 t , , : : : 2 2 = = = ",
"= : : : : : : 2 2 6 g G { *.oXtXu.l e 5 : : : : : 2 5 e g F J *.0X0Xp. .W Z Z ' ' ' J Z J J J J H ] H . 2 t : : : : : : : : : : ",
", , = = = , , , 2 w f V { =.'.uX1.f w 6 3 , , , 2 3 6 u g B Z &.2X,Xe.*.&.^ &.=.=.=.*.%.%.~ E ~ E S ' o 3 p , 2 = = , , , , , = ",
"3 5 5 7 7 7 7 7 e p F } :.p.'.uXa.V m m p p p p p p z N ] | X.M.XX.X/.I.I.L.L.L.L.L.L.I.I.L.I.Q.M.a.+.X 7 m e e e e e t t t e e ",
"* * = = = = , , 2 3 6 y u d !.pX_ w 3 , = * > * * * , 3 6 w d k.5XsX(.yXfXsXsXpXpXdXdXdXpXsXdXfX%XA 6   % 3 = * = , > > = * = = ",
"* * = = > > > , , 2 3 6 e # $.%XU < 2 = = * * = * = , 3 6 w f k.oX9XF.1.l.A.n.l.l.l.l.N.A.A.n.5X5XT y t 6 2 , = * * = * * & % @ ",
"3 5 7 7 7 7 7 7 r p m N +.e i a.' g p t 7 e e e e e p m N H 7.b.2X=Xf. .! E W { Y / 5.2.9.*.=.0XqXg.6.o.G g t 6 5 5 7 7 7 7 5 3 ",
", = , = = = = = , 3 6 y ' 6 6 F w 3 2 , = : = = = = 3 w i c { -.0X5Xe.} J J B v c B B B J W e.qX&X=.{ B g 6 2 : = = = = , , = = ",
": : : : : : : 2 2 3 5 6 M 3 3 s 3 3 2 , 2 2 2 = , 2 3 w g B Z *.0X0Xd. .J V c c c z z z c Y =.qX*X&.{ V p 6 2 2 : : : : : : : : ",
": : : : : : : : 2 2 < 4 b 2 , t 2 2 2 2 : : : : = : 2 w p c J ,.5XqX*.W J c g p p y r r g c ) qX*X&.L B p 6 3 2 : : 2 2 : : 2 : ",
": : : : : : : = = : 3 = 8 2 * e = = : : : = : : : : 2 6 i c Z ) ;XrX3.{ V c i w 7 6 6 6 w f E 1XqX&.Z c p 6 3 , : : : : : : : : ",
"2 2 2 : : : : : : 2 2 2 e 3 + 6 , , 2 2 = = 2 2 2 : , 6 i c Z ^ ;XwX/ { G z y 6 6 3 3 2 6 z ) ;X0X! V M i e 3 2 2 2 2 2 : : : : "
};
