/* XPM */
static const char *west[] = {
/* columns rows colors chars-per-pixel */
"64 64 247 2 ",
"   c #070503",
".  c #0C0502",
"X  c #0D0905",
"o  c #0D0709",
"O  c #0D0909",
"+  c #120602",
"@  c #1A0700",
"#  c #130A04",
"$  c #1B0C03",
"%  c #130B0A",
"&  c #1B0D09",
"*  c #120708",
"=  c #1D1004",
"-  c #1D130B",
";  c #220E01",
":  c #240F04",
">  c #231203",
",  c #2A1403",
"<  c #2D1905",
"1  c #24150B",
"2  c #2A160B",
"3  c #26190D",
"4  c #2B1A0C",
"5  c #311604",
"6  c #331B04",
"7  c #3B1C04",
"8  c #321C0B",
"9  c #3B1E0A",
"0  c #2C1C11",
"q  c #261710",
"w  c #311E12",
"e  c #34210C",
"r  c #3B230B",
"t  c #3E2406",
"y  c #342212",
"u  c #3B2514",
"i  c #3E2916",
"p  c #3B2719",
"a  c #3E2919",
"s  c #3E2A19",
"d  c #362815",
"f  c #2E2110",
"g  c #401F03",
"h  c #432404",
"j  c #4B2604",
"k  c #43250B",
"l  c #44290A",
"z  c #4B2B0C",
"x  c #492907",
"c  c #522D0C",
"v  c #542B08",
"b  c #53320B",
"n  c #5B340C",
"m  c #563709",
"M  c #412614",
"N  c #422B16",
"B  c #4B2D13",
"V  c #412718",
"C  c #422B19",
"Z  c #4A2F1A",
"A  c #502C10",
"S  c #4D3215",
"D  c #463119",
"F  c #4B321A",
"G  c #533313",
"H  c #5A3513",
"J  c #553915",
"K  c #5C3B14",
"L  c #523419",
"P  c #553919",
"I  c #5B3B1A",
"U  c #5B361C",
"Y  c #4D310B",
"T  c #63380B",
"R  c #623B14",
"E  c #623D1B",
"W  c #663A15",
"Q  c #723E13",
"!  c #573921",
"~  c #5E4618",
"^  c #5F410D",
"/  c #6A460D",
"(  c #644314",
")  c #6B4313",
"_  c #63411D",
"`  c #6D481A",
"'  c #724414",
"]  c #724A14",
"[  c #724A1B",
"{  c #7C4C19",
"}  c #774916",
"|  c #6D541A",
" . c #79531C",
".. c #795517",
"X. c #79480E",
"o. c #7E631A",
"O. c #5F4120",
"+. c #674421",
"@. c #764E24",
"#. c #7B4F24",
"$. c #765124",
"%. c #7B5325",
"&. c #7B552A",
"*. c #7A5629",
"=. c #7C5D30",
"-. c #7D6121",
";. c #84531C",
":. c #8C5D1B",
">. c #875817",
",. c #905519",
"<. c #874F19",
"1. c #89641C",
"2. c #956D1D",
"3. c #81562A",
"4. c #835B2D",
"5. c #885824",
"6. c #855E34",
"7. c #905A2E",
"8. c #8E6D23",
"9. c #896523",
"0. c #926B24",
"q. c #94652D",
"w. c #9A6B2A",
"e. c #9B742B",
"r. c #9D7A2C",
"t. c #9A7926",
"y. c #8A6437",
"u. c #986B36",
"i. c #947529",
"p. c #A26D2C",
"a. c #A96B2A",
"s. c #A6792B",
"d. c #A77538",
"f. c #B37734",
"g. c #AC7132",
"h. c #A66E1F",
"j. c #C47930",
"k. c #9A7143",
"l. c #A77C4A",
"z. c #A1861F",
"x. c #9D8128",
"c. c #A3822B",
"v. c #A9882A",
"b. c #B48D2E",
"n. c #AF9127",
"m. c #B3932D",
"M. c #BA982D",
"N. c #A98732",
"B. c #B38D34",
"V. c #AC9334",
"C. c #B49233",
"Z. c #B69935",
"A. c #BC9B34",
"S. c #BC9C3B",
"D. c #B89539",
"F. c #BDA238",
"G. c #BFA22D",
"H. c #C19D34",
"J. c #C39A38",
"K. c #CC8A36",
"L. c #E1973C",
"P. c #C3A52F",
"I. c #C2A234",
"U. c #CBAB36",
"Y. c #C5A53A",
"T. c #CAAC3C",
"R. c #C7A739",
"E. c #D0AD3D",
"W. c #CCB33A",
"Q. c #D3B53C",
"!. c #D6BB3D",
"~. c #DBC13C",
"^. c #AC8553",
"/. c #BA8C55",
"(. c #B78D58",
"). c #BE905B",
"_. c #B38948",
"`. c #BDA646",
"'. c #DA9C47",
"]. c #CA985B",
"[. c #D19D5D",
"{. c #DA9C55",
"}. c #C59449",
"|. c #E29C42",
" X c #C8A944",
".X c #D4A746",
"XX c #CBB244",
"oX c #D5B843",
"OX c #D0BB53",
"+X c #E8A548",
"@X c #E9AA55",
"#X c #EEB357",
"$X c #D5A465",
"%X c #DAA565",
"&X c #D5A469",
"*X c #DAA76A",
"=X c #DCAA6C",
"-X c #DBA865",
";X c #DEAC71",
":X c #E2AD6D",
">X c #E0AE71",
",X c #E4B274",
"<X c #EDBB7C",
"1X c #EAB678",
"2X c #F3BA6F",
"3X c #DCC443",
"4X c #DAC649",
"5X c #DECC53",
"6X c #DCC756",
"7X c #E2CA4A",
"8X c #E7D246",
"9X c #E8CA57",
"0X c #E6D15A",
"qX c #EAD65A",
"wX c #F3DA5B",
"eX c #DFD063",
"rX c #EBDB6C",
"tX c #E9D765",
"yX c #F3DF68",
"uX c #FFCC79",
"iX c #F8C379",
"pX c #FFD876",
"aX c #F3CD6B",
"sX c #F2E263",
"dX c #F4E46A",
"fX c #F3E86A",
"gX c #F9ED7B",
"hX c #F5E777",
"jX c #FCF17E",
"kX c #FCF175",
"lX c #EEE167",
"zX c #EDBD80",
"xX c #F0BD83",
"cX c #EEC183",
"vX c #F5C384",
"bX c #F8C585",
"nX c #F6C589",
"mX c #F6C88A",
"MX c #FAC98A",
"NX c #FAC887",
"BX c #FFD383",
"VX c #FACC93",
"CX c #FAEC83",
"ZX c #F8EB86",
"AX c #FEF283",
"SX c #FFF68C",
"DX c #FFF692",
/* pixels */
"O . r M + . y i # . + a 1 . & > *.1XG $ # X . ; Z # X + N 1 X X . y i . . 8 i X X @ N 4 $ *.vXS & # + & # o X u e . . 4 i + o . ",
". y V # . 0 a + . @ i 3 . X % > %.zXJ $ * + + a 1 . + N 1 . o . y p + . 8 V + X + a 3 + ; %.NXL & o X X # . 3 d + . 4 d + X . & ",
"M i X . 4 a + . + C 3 . + . % > %.cXJ $ o + a 4   # a 3 . O . u N +   4 M @ . @ a 3 . X ; %.MXL & X X # . 1 Z + . 4 V + X . 1 D ",
"u #   4 V +   @ C 3 . + 0 1 + > %.<XJ $ + + 3 a + 0 4 . # . i N + . 0 a + . + a 3 . . f 6 %.vXS $ # X X O # M 4 @ p + X X > F 1 ",
"X . 4 i @ X + C 3 . . 4 a # % > %.<XG e 0 . . 3 C + . # + i i + . 4 C + X + i 3 . . 4 s : %.nXL = X % d + X @ a 4 . X . 1 F 1 . ",
". 4 a + . + C 3 . . 2 N + X & > %.,XL $ a 4 . . 3 N + . C y . . 4 a + . + N 3 . . q a + $ %.bXG = * . 2 N # . X a 4   3 Z = . # ",
"4 p + X # N 2 . X 1 i + . o % > %.1XJ + + i 0 o . 3 N i e + . 4 a + . @ B 9 > > 2 V + X $ &.NXG $ * o . 3 a % X + i d C $   # V ",
"i @ X $ C 3 . X 1 F + . - # % > *.1XH + . & 0 # X X q 4 . . 2 a + X ; S z r k z I $ . - > *.mXS $ * . # . 3 - . . # y & . @ i 3 ",
"X . # F 8 . * X # V y 1 i + & > &.1XG + X O . * $ # X . . 3 i + X = U H x K E b R N 2 C ; *.vXL & # X X X X . & & . . . + C 2 . ",
". X . 1 N & X o X . M B + . & > %.,XG $ # $ # . d d + . 3 N + + 1 4 z / ] 0.e.( h H Z @ $ &.bXG $ X X + & # X - Z > . X a 4 . o ",
"> & * . 1 D & o . 3 i @ + O & > %.:XL + 3 Z +   + i u 3 a + + 8 r r l ..A.~.C. .n R > X $ %.vXL $ # O + B 0 . . 1 D 1 i 4 . # 1 ",
"F - . . 1 N @ . 3 s + . o X # > %.1XJ & + 4 i + o + y V + . 4 E z x ..N.dX8Xm.1.Q k - * @ %.MXL & o O X $ a 3 . X = F 2 . X d V ",
"- X . 4 C # . 1 C +   o o X % > %.1XH $ o   4 a # + * X + 8 I B l  .v.0XDX~.m.:.n k 1 * + %.NXJ $ # X * . + a 3 . X # . # i u + ",
"o X X 0 # X   - & . X . o X % ; $.1XG $ o X . 0 8 . # X ; G j j ` s.oXSXgXP.c.) c e $ X + %.MXP $ # o X + . # i & # # o w y . o ",
"# # # + % # # # * & & # % % $ x [ w.R 2 % & & # & # # = 2 r z ( r.I.hXAXrXM.r.R A 8 = & > ` =Xz ; # % $ $ & $ $ = $ $ $ $ + + @ ",
"@ $ $ ; > > > > > > 1 > , , , p.+X|.|.b , 5 < < < < 8 9 v n / s.A.qXrXeXqXA.2.T v t 6 7 n p.f.p.c t l l B B S b G H H R K ~ _ +.",
"[ [ @.@.%.%.%.%.%.&.&.&.3.5.{ g.iXuX+XX.q.u.u.p.d.d.d.f.j.K.L.9XqXAXtXZXqXwX@X'.{.%X%X&X;.@XuX+Xd.=X&X&X%X&X*X=X=X:X:X,X,X<XvXNX",
"1X<XcXvXMXVXMXMXmXMXNXbXbXMX,Xf.iXuX+X;.=X=X&X$X[.[.].}.K.+X9XqXjX0XaXZX9X9X'.}.}.)././.{ @XBX+X5.l.k.y.y.6.4.4.=.4.&.*.&.%.@.@.",
"+.+._ O.I I I J P G G S Z Z l 9.+X'.K.R r 9 6 r 9 k v T ..b.M.tXhXn.OXdXI.v.T h , > > > n f.K.g.k $ , > > : > > > > ; < : > > > ",
"> $ $ @ , 2 + + + + # # # + $ h ' w.T 9 @ 8 , + 3 9 v ;.N.Z.OXAXR.z.tXwXY.0.x 4 - - - & , ` /.b 2 & & # 3 d $ & & @ y a + # & - ",
"d + . , F 1 . # w # o + + # # ; &.;Xz 4 # 1 F 8 , z } e.D.Y.gX5Xn.V.gX3XS.[ 7 r # o . + $ *.VXP $ + % - + i i + . y i + . + p 1 ",
"# . 1 F 1 . # d y # # + y d # : 3.=XY e C + 1 G H ' 1.D.M.rXsXA.v.T.AXW.r.m G y + o . y k @.mXH $ # @ i 3 . y V u u X X & Z 3 . ",
"X 1 F > . X 2 F @ X . 8 a + % > *.,XH ; 4 V > 7 Q X.b.A.5XgXT.C.M.0XdXZ. .b P @ . + e B ; %.nXH $ # o # i 4 . 4 N +   $ B 1 . o ",
"2 F > . X X . 2 C . 4 i + X # > *.,XG 1 @ 8 K c T r.A. XAX4Xm.b.R.dXtXc.( 7 k B ; y J 6 5 3.vXP & + X O + u y + . o + N 3 . @ u ",
"F > X . 0 0 . . y C y + X X # > &.>XL 1 = 6 ) T 9.Z.I.hXwXH.s.M.W.gXXX0.T k k n W R h k j 5.iXP $ X X o . y s # X + C 3 . @ N u ",
"> . . 2 M a 0 . @ 8 # X # # % ; &.=XG , 5 E n ] B.P.0XhXT.v.2.m.!.AXXX2.>.{ ] { :.>. .( j 5.vXJ $ # o . 4 i . . @ a 3 . # u y + ",
"X . 4 a + + p 2 + . . = C # o ; 3.-Xc 7 I H n r.H.oXAXoXZ.>.1.A.8XsXG.m.C.J.I.H.I.Y.R. X..>.iXK $ # . 3 N + X @ a 3 .   w d . X ",
"  3 N + o . 1 F # X = S 1 X % ; &.=Xn R R c 1.J.Q.kX0XI.0.v 8.A.sXfXQ.3X3X3X7X3X3X~.oX X0.:.2XI $ . 3 s @ . X a 4 . # o # + . X ",
"4 i + . . 1 F > . $ F 1 . # % $ &.=XT n v ] B.U.wXhXU.b.K x 8.Y.rXCXgXhXZXZXZXZXhXAXyXm.1.:.2XI $ + - & . # C 3 . + u 0 . X + i ",
"i @ . X + B 1 . $ Z 1 . + . % $ 4.%XW v / s.J.5XAX!.A. .z 6 -.`.D.V.N.N.S.D.V.v.`.CXT.v./ 5.iXJ $ # . . $ C 3 . X # d # . + a 3 ",
"X # + # N 3 . & Z 1 . . & # # ; 4.{.Q T e.A.W.kX0XH.>.c 9 9 J ~ | | ..r.e.8.t.C.hX0XA.e.j 5.vXI $ o O & Z 3 . . - % X X + C 3 . ",
"X X $ Z 3 . $ B 3 . . 3 p + * ; 5.{.X.:.C.G.dXfXQ.v.] ( K ( e > > 6 K H x ( t.eXfXP.J. .7 %.NXI @ o . 4 3 . X 1 N + X + C 2 . X ",
". $ D 3 . @ N 1 . . 2 a # . % > 5.'.<.s.n.5XkXQ.P.A.Z.Z.Z.c.i.~ 6 G k 2 x 8.XXAXQ.R.e.t , $.vXP # # o X . . + Z 1 . + a 3 . # X ",
"> F 3 . + C 3 . . 4 i @ . X # , 5..X:.s.T.AXsX7X7X5X9X9X6X6X5XV.( r < h 9.D.hX5XR.D.m 4 : %.vXI $ + o o X & i 3 . + i 3 . o + r ",
"S 1 . # N 3 . . 2 C X . & # $ , 7.'.:.v.oXsXwXsXyXsXsXyXdXjXsXm.m < t  .c.tXdXU. X] 6 4 , #.nXJ @ X X O X 1 C @ # a 3 . X . i N ",
"- . # i 1 . . 2 i + X # Z 1 % > 5.{.>.C.I.I.R.XXE.R.Y.I.F.hX8X8.N 7 ] e.XXjXQ..X8.h 6 B < $.bXI @ o % 1 . . 1 N & - . O + i p + ",
". + N 3 . . 4 i + . + i 3 . & > 5.{.] r.`.D.D.C.D.N.t.b. XCXW.9.z R 1.C.CX9XU.N.Y 7 Z 4 $ $.MXI + o X i 2 . X 2 N + X + N y . . ",
"@ C 3 . . 4 C + . # a 2 . o # : 3.%XR b ( ..( R T ' >.b.9XfXF.2.) ..c.tXdXU.S./ 7 L 2 . ; %.bXI @ * X @ V 3 . . 3 a @ i u . . 2 ",
"N 3 . . 0 a X . & i 2 . + X % $ 4.%Xn 9 , k K z z v e.J.eXwXm.t.] 8.OXAX!.F.9.z H 2 . % : #.vXI @ * o X + s - . . 3 F 4 . . 3 N ",
"1 . # y M + X . 1 F > + y % o $ 4.%Xn 8 1 ; 4 r k n t.S.ZX~.I.9...S.gX5XY.r.x l P > + d > %.vXI + o X + o * % . . X % X . 2 a X ",
"X o + N 9 . X X . 1 N N 4 X o @ 4.$Xb 4 $ + # 1 G ] v.T.CX!.m.o.x.rXdXW.D.R k > 1 N N 4 $ $.nXI # X X X . o . 1 y . X . 3 C + X ",
"+ X X . p w X O X + N 8 . X * + 4.%XG , 0 4 . $ l 0.m.6XdXI.c.2.OXjXQ..X0.j w & @ N 0 + ; %.NXI @ + X + y $ . # N i . 3 C + X + ",
"u 1 + X + F > . @ a 4 . X X o + &.%Xb 2 3 B 3 $ 6 0.R.rX0Xm.t.F.AX4XP.c.} z = + i 4 . & > %.NXI + % * X y i @ X . y C i @ . 1 d ",
"d # o * i 4 + # i 4 . X o * o + y.=XG 2 & @ N e r t.Y.CXoXn.Z.rXsXU.S.>.c 2 $ i 2 . + # > *.mX! + o % o . 2 i + X + 4 + . 1 F 1 ",
". . + i 2 . . q 0 . # # * # # $ %.}.v , - . $ S ( v.oXgXY.M.6XjX!.R.s.n u $ 0 w . % * # > [ ,XG $ # % & & + f Z $ % # + 0 ! 2 # ",
"% * % - # & % & # & & & = & > ;.f.g.p.z $ & : 7 >.M.qXlXM.E.gX7XU.N.T j 6 ; ; $ $ $ $ ; b a.f.p.z $ $ $ $ $ ; 6 , ; > ; 6 < ; > ",
", 2 < 6 6 6 8 e r r r r r r x g.BXuX@XR S J R ' N.XXhX0XR.rXsX!.oXh.,.5.@.$.&.&.3.3.4.&.' #XiX#X{ y.k.l.^.^.^.^.^.(.(././.).).].",
"].].].[.[.[.[.[.%X=X;X;X:XxX_.a.iXuXL.d.VXNXiXaXpXhXCXyXhXhXyXhX#X+X#X2X1X,X:X=X:X=X=X$X' @XBX#X<.$X=X=X=X=X=X*X=X*X*X*X%X&X&X&X",
"_.l.d.d.d.d.d.u.u.q.q.q.q.u.[ p.@X@X|.} 3.3.;.s.oX7XhX4XjX7XoXJ.,.<.{ ` +.E E R K K H H Q |.#X'.W x z l k k t r 9 7 7 6 6 6 6 6 ",
"5 < < < < 2 , > > , , > > > < z { 5.) l , , 7 8.A.6XtXrXyXR.D./ v k 5 > = > > > > > > > G } <.' k $ & = = $ $ % # $ $ # # & & + ",
"# # # # # * % # X O * * # # * + 6.=Xz < 2 > r r.F.tXfXhXU.}. .x r > & # # # % % * # * % 5 @.,XI $ * o X   . + X X X . - + + o o ",
"& X X . 1 1 X X . X + X X X # + y.%Xc 2 2 2 l c.F.ZXSX4XY.0.z k < * . + # + X o . + X % > %.MX_ $ * O X - w + X X . 0 p # X # % ",
"y # X > F 1 . # w # X X o & # + 4.&XY 6 , B ) c. XDXtXT.x.v z B & o . p w . X # # o X * ; %.vXE $ # # - + a N + . y i + X + i 1 ",
"# . 1 F 1 . + u d + o . y d o @ y.*Xz N M , %.A.Q.tXXXs.m c I e . @ u i # . 1 s # X . 2 9 %.iXE $ o * a 3 . y i i i X X & Z 3 . ",
". 1 F > . X 2 F + X + 8 i + X + y.%Xz 6 I l | S.T. XN.m z _ r + + V a . . 1 F = X X $ F 6 $.cXE = * . + d 4 . 4 N + X $ B 3 . X ",
"2 F 1 . O X . 2 a . 2 N + O * @ y.%XA 2 7 H | B.R.N.m j ` k @ + i u + X . & i 1 . + Z 4 @ %.iXE = * # X + i y # . o @ N 3 . + u ",
"F > . . 0 0 . . f Z u + X X * + y.*Xz 4 8 7 ` 9.1.m h E B $ + i y + . # # . @ B 2 a 3 X = %.nX_ ; * X # . y C # X + N 3 . @ N u ",
"> . . 2 M a 0 . + 4 # . # + # + 4.%Xb < > B K h 7 7 I z > + a i . . + N N + . $ D q . + ; $.vX_ = # X . 4 i . . @ a 3 . # u y + ",
"X . 4 a + + p 2 + . . - C # o @ y.&Xb , r N , 4 2 S e $ & N y . o @ N 1 1 C # . + . X w > $.vX_ = % . 3 V +   @ a 3 .   w d . X ",
"  3 N + o . 1 F # X = S 1 X O @ y.*Xz l F + # $ N 4 . @ # 4 + . + N 3 . . 2 N X X + y C ; $.<X_ > X 3 s + . + a 4 . # o # + . X ",
"4 i + * . 1 F 1 . $ F 1 . X % + y.=Xc L 1 . # i 3 . # 4 + . X + a 2 . o X r u o . y N + $ $.vX_ $ + - # . + N 3 . + u 0 . X + i ",
"V @ . X # B 1 . $ Z 3 . . . % @ y.*Xc 5 & + N 3 X X 0 a . O + i 3 . # . y i + . y i + # > $.NX+.$ # . . # C 2 . o # d # . + a 3 ",
"X # + # N 3 . & Z 1 . + & * * $ y.*Xz , 2 C 1 . # + - % . @ C 3 . # . 4 i + . y i + . * ; $.bX_ $ * O = C 3 . . - % X X + a 3 . ",
"X X & N 3 . $ B 3 . X 1 i + % @ y.%Xc < F 3 . . 3 0 . o X i 2 . X . 4 s + . 8 N + . # y > #.vX_ $ * . 4 4 . O - N # O + N 4 . # "
};
